image/ection-twacs-item-img6.svg

<svg fill="none" height="17" viewBox="0 0 29 17" width="29" xmlns="http://www.w3.org/2000/svg"><path clip-rule="evenodd" d="m.291413.294377c.389704-.391342 1.022867-.3926692 1.414207-.002964l5.22489 5.203037c.68505.68217 1.1292 1.12148 1.49908 1.40261.34678.26358.50898.29308.6164.29311.10742.00004.26964-.02933.61661-.29266.3701-.28086.8146-.71984 1.5001-1.40152l.3657-.3636c.6251-.62167 1.1639-1.1575 1.6533-1.52892.5245-.39814 1.1074-.69936 1.825-.69944s1.3005.301 1.8252.69902c.4894.37131 1.0284.90703 1.6537 1.52857l8.1811 8.13128v-4.99068c0-.55228.4477-1 1-1 .5522 0 1 .44772 1 1v7.39448c0 .5522-.4478 1-1 1h-7.4429c-.5523 0-1-.4478-1-1 0-.5523.4477-1 1-1h5.0182l-8.1198-8.07032c-.6851-.68093-1.1293-1.1194-1.4991-1.39995-.3467-.26302-.5088-.29241-.6162-.2924s-.2695.02944-.6161.29254c-.3698.28064-.8138.71921-1.4988 1.40029l-.3656.36364c-.6257.62222-1.165 1.15851-1.6547 1.53017-.525.3984-1.10832.69977-1.82644.6995-.71812-.00026-1.30123-.30205-1.8259-.70083-.48947-.37203-1.02835-.90871-1.65358-1.5314-.01545-.01539-.03096-.03083-.04651-.04632l-5.224893-5.20303c-.391342-.38971-.3926692-1.022871-.002964-1.414213z" fill="#4b4b4b" fill-rule="evenodd"/></svg>

<svg width="29" height="17" viewBox="0 0 29 17" fill="none" xmlns="http://www.w3.org/2000/svg">
<path fill-rule="evenodd" clip-rule="evenodd" d="M0.291413 0.294377C0.681117 -0.096965 1.31428 -0.0982922 1.70562 0.291413L6.93051 5.49445C7.61556 6.17662 8.05971 6.61593 8.42959 6.89706C8.77637 7.16064 8.93857 7.19014 9.04599 7.19017C9.15341 7.19021 9.31563 7.16084 9.6626 6.89751C10.0327 6.61665 10.4772 6.17767 11.1627 5.49599L11.5284 5.13239C12.1535 4.51072 12.6923 3.97489 13.1817 3.60347C13.7062 3.20533 14.2891 2.90411 15.0067 2.90403C15.7243 2.90395 16.3072 3.20503 16.8319 3.60305C17.3213 3.97436 17.8603 4.51008 18.4856 5.13162L26.6667 13.2629V8.27222C26.6667 7.71994 27.1144 7.27222 27.6667 7.27222C28.2189 7.27222 28.6667 7.71994 28.6667 8.27222V15.6667C28.6667 16.2189 28.2189 16.6667 27.6667 16.6667H20.2238C19.6715 16.6667 19.2238 16.2189 19.2238 15.6667C19.2238 15.1144 19.6715 14.6667 20.2238 14.6667H25.242L17.1222 6.59638C16.4371 5.91545 15.9929 5.47698 15.6231 5.19643C15.2764 4.93341 15.1143 4.90402 15.0069 4.90403C14.8995 4.90404 14.7374 4.93347 14.3908 5.19657C14.021 5.47721 13.577 5.91578 12.892 6.59686L12.5264 6.9605C11.9007 7.58272 11.3614 8.11901 10.8717 8.49067C10.3467 8.88907 9.76338 9.19044 9.04526 9.19017C8.32714 9.18991 7.74403 8.88812 7.21936 8.48934C6.72989 8.11731 6.19101 7.58063 5.56578 6.95794C5.55033 6.94255 5.53482 6.92711 5.51927 6.91162L0.294377 1.70859C-0.096965 1.31888 -0.0982922 0.685719 0.291413 0.294377Z" fill="#4B4B4B"/>
</svg>
